X:282
T:Lonesome Moonlight Waltz https://www.youtube.com/watch?v=joCUaK7hUho
C:Bill Monroe 
N:Arranged by Solly Burton TablEdit by Larry Tanner
R:bluegrass
L:1/8
Q:1/4=110
M:3/4
K:F
z3A c3/2_d/ | (3"Dm"d/d/d/(3d/d/d/ df (3dcA | (3d/d/d/(3d/d/d/ df (3dcA | (3"F"[c/A/][c/A/][c/A/](3[c/A/][c/A/][c/A/] [cA]d (3cAF | 
"Dm"(3D/D/D/(3D/D/D/ DA c_d/=d/4d/4 | (3d/d/d/(3d/d/d/ df (3dcA | (3d/d/d/(3d/d/d/ df (3dcA | 
"G"(3[G/=B,/][G/B,/][G/B,/](3[G/B,/][G/B,/][G/B,/] [GB,]"E7"[_G_B,] [=G=B,][_AC] | 
"A"(3[A/_D/][A/D/][A/D/](3[A/D/][A/D/][A/D/] (3[A/D/][A/D/][A/D/]A (3cAc | (3"Dm"d/d/d/(3d/d/d/ df (3dcA | 
(3d/d/d/(3d/d/d/ df (3dcA | (3"F"[c/A/][c/A/][c/A/](3[c/A/][c/A/][c/A/] [cA]d (3cAF | 
"Dm"(3D/D/D/(3D/D/D/ (3D/D/D/D (3Fd_d | "C"[c2E2] [c2E2] (3cAd | [c2E2] [cE]d (3cAG | 
(3"F"FA,F (3FA,F (3FA,FF/ | G/F3/2 [F2A,2] (3FE_E | "Bb"(3[D/B,/][D/B,/][D/B,/](3[D/B,/][D/B,/][D/B,/] (3[D/B,/][D/B,/][D/B,/](3[D/B,/][D/B,/][D/B,/] (3_D=DF | 
(3G/G/G/(3G/G/G/ (3F/F/F/(3F/F/F/ (3G/G/G/(3G/G/G/ | (3"F"AcA (3cAc (3AcA | (3dAd [c2A2] (3[cA][cA][c_A] | 
(3"G"[=B/G/][B/G/][B/G/](3[B/G/][B/G/][B/G/] (3[B/G/][B/G/][B/G/](3[B/G/][B/G/][B/G/] G/A/B/d/ | 
(3faf (3efe d_d | (3"C"c/c/c/(3c/c/c/ (3c/c/c/(3_G=G (3c=B_B | (3"A7"A/A/A/(3A/A/A/ (3A/A/A/A (3Ac_d | 
(3"Dm"d/d/d/(3d/d/d/ df (3dcA | (3d/d/d/(3d/d/d/ df (3dcA | (3"F"[c/A/][c/A/][c/A/](3[c/A/][c/A/][c/A/] [cA]d (3cAF | 
"Dm"(3D/D/D/(3D/D/D/ (3D/D/D/D (3Fd_d | (3"C"c/c/c/(3c/c/c/ (3c/c/c/c (3G_A=A | 
(3c/c/c/(3c/c/c/ (3c/c/c/{_d}=d cA/G/ | (3"F"F/F/F/(3F/F/F/ FF2F/G/ | F2 [F2A,2] [FA,]A | 
(3"Dm"[a/f/][a/f/][a/f/](3[a/f/][a/f/][a/f/] (3[a/f/][a/f/][a/f/][af] [af][ge] | 
[f2d2] [f2d2] (3cAG | "F"A(3c/c/c/ (3c/c/c/c/(3d (3cAF | (3"Dm"D/D/D/(3D/D/D/ (3D/D/D/(3D/D/D/[a/f/] | 
z/[af][ge][ge][fd][fd]c/ | (3GAc (3GAc (3D_DC | (3=B,"G"DG (3=Bdg (3_g=g_a | (3"A"ae_d (3AGE (3_DA,=D | 
(3"Dm"[a/f/][a/f/][a/f/](3[a/f/][a/f/][a/f/] (3[a/f/][a/f/][a/f/][af] [af][ge] | 
[f2d2] [f2d2] (3cAG | "F"A(3c/c/c/ (3c/c/c/c/(3d (3cAF | (3"Dm"D/D/D/(3D/D/D/ (3D/D/D/E3/4F3/4d3/4_d3/4 | 
"C"c2 [cE]d (3cAG | (3EcE [cE]d (3cAG | "F"F(3[F/A,/][F/A,/][F/A,/] (3[F/A,/][F/A,/][F/A,/](3[F/A,/][F/A,/][F/A,/] (3FFE | 
"F7"(3_E/E/E/(3E/E/E/ (3E/E/E/c3/4 c3/2_d/ | (3"Bb"dfd (3fdf (3fdf | (3gdg (3fdf g(3_a=a | 
(3"F"a/a/a/(3c'/c'/c'/ (3c'/c'/c'/(3c'/c'/c'/ (3d'/d'/d'/(3d'/d'/d'/ | (3c'/c'/c'/(3c'/c'/c'/ (3c'/c'/c'/c' (3c'd'c'=b/ | 
(3"G"=b/b/b/(3b/b/b/ (3bgd (3cB=B | (3GFE (3DC=B, (3G,A,B, | "C"C2 EC (3C=B,_B, | 
"A7"A,2 [E_D]A c3/2_d/ | (3"Dm"d/d/d/(3d/d/d/ df (3dcA | (3d/d/d/(3d/d/d/ df (3dcA | 
(3"F"[c/A/][c/A/][c/A/](3[c/A/][c/A/][c/A/] [cA]d (3cAF | "Dm"(3D/D/D/(3D/D/D/ (3D/D/D/D (3Fd_d | 
"C"[c2E2] [cE]d (3cAG | c2 [cE]d (3cAG | "F"(3[F/A,/][F/A,/][F/A,/](3[F/A,/][F/A,/][F/A,/] A2 c2 | 
[f6A6F6] | z6 | 


